X: 1
T: In Days Gone By
C: \251 B.Black
%Q: 325
R: hornpipe
M: 4/4
L: 1/8
K: Ddor
A \
| d^cde fgag | f2 ed cA (3AGA | c2BG A2GE | FGAd ^ceag |
| fgaf ec (3ccc | dcAG FDDE | F2AF cFdF | cAGE D3 :|
A \
| dcAc dcAc | adgc fedc | defd cAGE | FDCE D3A |
| dcAc agfe | defd cAGE | FGAd ^ceag | fdec d3 :|
